!!!!SEGMENT: pl-wn--mus-iii-123-982--002_wieniawski-henryk--l-ecole-moderne-etudes-caprices-pour-violon-seul-op-10-2-la-velocite.krn
!!!cenid: 18xx:3815
!!!COM: Wieniawski, Henryk
!!!COM-rismID: pe137176
!!!CDT: 1835/07/10-1880/03/31
!!!CNT:
!!!GTL: L'école moderne.Etudes-caprices pour violon seul op. 10
!!!OTL: 2. La Velocité
!!!OMV: 002
!!!PDT:
!!!AGN:
!!!SMS-siglum: PL-Wn
!!!SMS-shelfmark: Mus.III.123.982
!!!SMS-shelfwork: 001-002 G
!!!SMS-variant:
!!!SMS-altvar:
!!!NIFC-rismSourceID:
!!!NIFC-rismChildID:
!!!NIFC-islandoraID: none
!!!URL-pdf-islandora:
!!!URL-scan: https://polona.pl/item/l-ecole-moderne-etudes-caprices-pour-violon-seul-op-10,MTE2OTgzMTMy/4 @EN{Scan on Polona} @PL{Skany w portalu Polona}
!!!ONB-nifc:
!!!OMD: Allegro vivace.
!!!OMD-mod: Allegro vivace
!!!AIN: 1 violn
!!!key: B
**kern	**fing	**dynam
*I"Violon	*	*
*Ivioln	*	*
*ICstr	*	*
*clefG2	*	*
*mI"Violino	*	*
*mI'vn	*	*
*kcancel	*	*
*k[f#c#g#d#a#]	*	*
*B:	*	*
*M4/4	*	*
*met(c)	*	*
=1	=1	=1
*xywh-4:494,469,3550,1149	*	*
(16Bu/LL	.	.
16d#/	.	.
16e#X/	.	.
16f#/JJ	.	.
!LO:TX:a:i:t=Sul D:dur=2es:ext=ud:problem:text with extention lines:mod=sul D	!	!
16dd#\LL	4	.
16a#\	.	.
16cc#\	.	.
16b\JJ	.	.
16dd#\LL	.	.
!LO:TX:a:i:t=Sul A:dur=3es:ext=ud:problem:text with extention lines:mod=sul A	!	!
16ff#\	.	.
16aa#\	1	.
16bb\JJ	.	.
16ddd#\LL	.	.
16aa#\	.	.
16ccc#\	.	.
16bb\JJ	.	.
=2	=2	=2
*8va	*below	*
16ddd#\LL	.	.
16fff#\	.	.
16aaa#\	1	.
16bbb\JJ	.	.
16dddd#\LL	4	.
16aaa#\	.	.
16cccc#\	.	.
16bbb\JJ)	.	.
!LO:TX:t=P:problem:up-bow symbol inverted:global	!	!
[2bbbbv\	o 4	.
=3	=3	=3
!LO:MO:mod=!null:null	!	!
!LO:N:xstem:cue	!	!
4bbbb\]	.	.
*X8va	*	*
!LO:TX:a:i:t=Sul G:dur=3hq:ext=ud:problem:text with extention lines:mod=sul G	!	!
!LO:TX:a:i:t=loco.:mod=loco	!	!
16B`u/LL	.	.
(16B/	.	.
16A#/	.	.
16B/JJ	.	.
*	*Xbelow	*
16f#/LL)	4	.
(16f#/	.	.
16c##X/	1	.
16d#/JJ	.	.
16b/LL)	4	.
(<16b/	.	.
16e#X/	1	.
16f#/JJ	.	.
!!LO:LB:g=original
=4	=4	=4
*xywh-4:474,1451,3556,552	*	*
16dd#\LL)	4	.
(16dd#\	.	.
16a#\	1	.
16b\JJ	.	.
16ff#\LL)	.4	.
(16ff#\	.	.
16cc##X\)	1	.
16dd#\JJ	.	.
(4.bb\	o 3	.
8B/)	2	.
=5	=5	=5
([4A#u/	.	.
16A#/LL]	.	.
16c#/	.	.
16e/	.	.
16gn/JJ	.	.
!LO:N:vis=16.	!	!
16f#t/LL	.	<
16e/	.	.
16g/	.	.
16a#/JJ	1	.
16cc#\LL	3	.
16b\	.	.
16a#\	.	.
16cc#\JJ	.	.
=6	=6	=6
16ee\LL	2	.
16ggn\	.	.
16ff#\	.	.
16ee\J	.	.
16gg\L	.	.
16aa#\	.	.
16ccc#\	.	[
16bb\JJ	.	.
16aa#\LL	.	.
16ccc#\	.	.
16eee\	1	.
16gggn\JJ	.	.
16fff#t\LL	.	.
16eee\	1	.
16ggg\	2	.
16aaa#\JJ	3	.
!!LO:LB:g=original
=7	=7	=7
*xywh-4:481,1919,3556,494	*	*
16cccc#\LL)	4	.
(16aaa#v\	3	.
16eee\	1	.
!LO:TX:a:i:t=à la 5me position:dur=3es:ext=ud:problem:text with extention lines	!	!
16fff#\	.	.
16aaan\	.	.
16gggn\	.	.
16eee\	.	.
16ccc#\	.	.
16bbT\	.	.
16aa#X\	.	.
16ee\	0	.
16ff#\	.	.
16aan\	.	.
16ggn\	.	.
16ee\	.	.
16cc#\JJ	3	.
=8	=8	=8
*	*below	*
16bT/LL	2	.
16a#X/	1	.
16e/	2	.
16f#/JJ	2	.
16an/LL	.	.
16gn/	.	.
16e/	.	.
16c#/JJ	.	.
!LO:TX:a:i:t=Sul G:dur=2q:ext=ud:problem:text with extention lines:mod=sul G	!	!
16BT/LL	.	.
16A#X/	.	.
16g#X/	4	.
16f#/JJ	.	.
16e/LL	2	.
16d#/	1	.
16e/	2	.
16c#/JJ)	3	.
!!LO:LB:g=original
=9	=9	=9
*xywh-4:583,2298,3505,545	*	*
(16Bu/LL	.	.
16d#/	.	.
!LO:TX:a:i:t=Sul D:dur=3es:ext=ud:problem:text with extention lines:mod=sul D	!	!
16e#X/	.	.
16f#/JJ	.	.
16dd#\LL	4	.
16a#\	.	.
16cc#\	.	.
16b\JJ	.	.
16dd#\LL	.	.
!LO:TX:a:i:t=Sul A:dur=4e:ext=ud:problem:text with extention lines:mod=sul A	!	!
16ff#\	.	.
16aa#\	1	.
16bb\JJ	.	.
16ddd#\LL	.	.
16aa#\	.	.
16ccc#\	.	.
16bb\JJ	.	.
=10	=10	=10
*8va	*	*
16ddd#\LL	.	.
16fff#\	.	.
16aaa#\	1	.
16bbb\JJ	.	.
16dddd#\LL	.	.
16aaa#\	.	.
16cccc#\	.	.
16bbb\JJ)	.	.
[2bbbbv\	o 4	.
=11	=11	=11
!LO:MO:mod=!null:null	!	!
!LO:N:xstem:cue	!	!
4bbbb\]	.	.
*X8va	*	*
!LO:TX:a:i:t=Sul G:dur=3hq:ext=ud:problem:text with extention lines:mod=sul G	!	!
!LO:TX:a:i:t=loco.:mod=loco	!	!
16B`u/LL	.	.
(16B/	.	.
16A#/	.	.
16B/JJ	.	.
*	*Xbelow	*
16f#/LL)	4	.
(16f#/	.	.
16c##X/	1	.
16d#/JJ	.	.
16b/LL)	4	.
(<16b/	.	.
16e#X/	1	.
16f#/JJ	.	.
!!LO:LB:g=original
=12	=12	=12
*xywh-4:506,2728,3524,494	*	*
16dd#\LL)	4	.
(16dd#\	.	.
16a#\	1	.
16b\JJ	.	.
16ff#\LL)	4	.
(16ff#\	.	.
16cc##X\)	1	.
16dd#`\JJ	.	.
(4.bbv\	o 3	.
8B/)	.	.
=13	=13	=13
([4Anu/	.	.
16A/LL]	.	.
16c#/	.	.
16e/	.	.
16gn/JJ	.	.
16f#t/LL	.	.
16e/	.	.
16g/	.	.
16an/JJ	.	.
16cc#/LL	.	.
16b/	.	.
16a/	.	.
16cc#/JJ	.	.
=14	=14	=14
16ee\LL	2	.
16ggn\	.	.
16ff#\	.	.
16ee\JJ	.	.
16gg\LL	.	.
16aan\	.	.
16ccc#\	.	.
16bb\JJ	.	.
16aa\LL	.	.
16ccc#\	.	.
16eee\	1	.
16gggn\JJ	.	.
16fff#t\LL	.	.
16eee\	1	.
16ggg\	2	.
16aaan\JJ	3	.
!!LO:LB:g=original
=15	=15	=15
*xywh-4:481,3094,3543,564	*	*
!LO:TX:t=P:problem:brak zakończenia łuku	!	!
16cccc#\LL)	4	.
(16bbbv\	3	.
16eee\	1	.
!LO:TX:a:i:t=à la 5me position:dur=3es:ext=ud:problem:text with extention lines	!	!
16fff#\	.	.
16aaan\	.	.
16gggn\	.	.
16eee\	.	.
16ccc#\	.	.
16bbT\	.	.
16aan\	.	.
16ee\	0	.
16ff#\	.	.
16aa\	.	.
16ggn\	.	.
16ee\	.	.
16cc#\JJ	.	.
=16	=16	=16
16bT/LL	.	.
16an/	.	.
16e/	.	.
16f#/JJ	.	.
16a/LL	.	.
16gn/	.	.
16e/	.	.
16c#/JJ	.	.
16BT/LL	.	.
16An/	.	.
16b/	.	.
16a/	.	.
16g/	.	.
16f#/	.	.
16g/	.	.
16e/JJ)	.	.
!!LO:LB:g=original
=17	=17	=17
*xywh-4:487,3531,3460,552	*	*
(16dnu/LL	.	.
*	*below	*
16f#/	1	.
16an/	3	.
16ddn/JJ	2	.
*	*Xbelow	*
16ff#\LL	4	.
16cc#\	.	.
16ee\	.	.
16dd\JJ	.	.
16ff#\LL	.	.
16aan\	2	.
16ccc#\	1	.
16dddn\JJ	.	.
16fff#\LL	.	.
16ccc#\	.	.
16eee\	.	.
16ddd\JJ	.	.
=18	=18	=18
16aaan\LL)	4	.
(16fff#v\	4	.
!LO:TX:a:i:t=à la 5me position:dur=5es:ext=ud:problem:text with extention lines	!	!
16dddn\	.	.
16aan\	.	.
16ff#\	.	.
16aa\	.	.
16ddd\	.	.
16fff#\	.	.
16eee\	.	.
16ddd\	.	.
16aa\	.	.
16ff#\	.	.
16ddn\	.	.
16an\	0	.
16f#\	2	.
16dn\JJ)	0	.
!!LO:LB:g=original
=19	=19	=19
*xywh-4:500,3999,3492,500	*	*
(16B-Xu/LL	.	.
16dn/	.	.
16fn/	.	.
16b-X/JJ	.	.
16ddn\LL	.	.
16an\	.	.
16ccn\	.	.
16b-\JJ	.	.
16dd\LL	1	.
16ffn\	.	.
16aan\	.	.
16bb-X\J	.	.
16dddn\L	.	.
16aa\	.	.
16cccn\	.	.
16bb-\JJ	.	.
=20	=20	=20
16fffn\LL)	4	.
(16dddnv\	4	.
16bb-X\	.	.
16ffn\JJ	.	.
16ddn\LL	.	.
16ff\	.	.
16bb-\	.	.
16ddd\JJ	.	.
16bb-\LL	.	.
16ff\	3	.
16dd\	3	.
16b-X\JJ	.	.
16fn/LL	.	.
16dn/	.	.
16B-X/	.	.
16An/JJ)	.	.
!!LO:LB:g=original
=21	=21	=21
*xywh-4:500,4346,3543,712	*	*
(16G#Xu/LL	.	.
16Bn/	.	.
16dn/	.	.
16e/JJ	.	.
16fn/LL	.	.
16d/	.	.
*	*below	*
16bn/	3	.
16an/JJ	.	.
16g#X\LL	.	.
16b\	.	.
16ddn\	.	.
16ee\JJ	.	.
16ffn\LL	.	.
16dd\	.	.
*	*Xbelow	*
!LO:TX:a:i:t=à la 4me position:dur=7es:ext=ud:problem:text with extention lines	!	!
16bbn\	4	.
16aan\JJ	.	.
=22	=22	=22
16gg#X\LL)	.	.
(16bbv\	.	.
16dddn\	.	.
16eee\JJ	.	.
16fffn\LL	.	.
16ddd\	.	.
16bb\	.	.
16gg#\J	.	.
16ffn\L	.	.
16ddn\	.	.
16b\	.	.
16g#\JJ	.	.
16fn/LL	.	.
16dn/	0	.
16B/	.	.
16G#/JJ)	.	.
!!LO:PB:g=original
=23	=23	=23
*xywh-5:230,324,3515,808	*	*
(8Anu/L	.	.
16dn/L	.	.
16f#/JJ	.	.
16an\LL	.	.
16ddn\	1	.
16ff#\	1	.
16aan\JJ	.	.
16dddn\LL	2	.
16fff#\	1	.
16aaan\	3	.
16ddddn\JJ	4	.
16aaa\LL	.	.
16fff#\	.	.
16ddd\	4	.
16aa\JJ)	.	.
=24	=24	=24
(16ff#v\LL	.	.
16ddn\	.	.
16an\	0	.
16dddn\JJ	.	.
16aan\LL	.	.
16ff#\	.	.
16dd\	.	.
16a\JJ	.	.
*	*below	*
16aa\LL	3	.
16ff#\	.	.
16dd\	.	.
16b\J	.	.
16a\L	.	.
*	*Xbelow	*
16f#\	0	.
16dn\	.	.
16B\JJ	.	.
=25	=25	=25
8An/L)	.	.
(16Au/L	.	.
16c#/J	.	.
16e/L	.	.
*	*below	*
16an/	1	.
16cc#/	.	.
16ee/JJ	.	.
16aan\LL	1	.
16ccc#\	.	.
16eee\	.	.
16aaan\JJ	1	.
*8va	*	*
16cccc#\LL	2	.
16eeee\	3	.
16aaaan\)	4	.
(16eeeev\JJ	3	.
!!LO:LB:g=original
=26	=26	=26
*xywh-5:166,980,3623,604	*	*
16cccc#\LL	2	.
16aaan\	1	.
*X8va	*	*
!LO:TX:a:i:t=loco.	!	!
16eee\	4	.
16ccc#\JJ	.	.
16aan\LL	.	.
16ee\	.	.
16cc#\	.	.
16an\JJ	.	.
*	*Xbelow	*
16a#X\LL	1	.
16ff#\	3	.
16ee\	.	.
16cc#\	.	.
16a#\	2	.
16f#\	2	.
16e\	.	.
16c#\JJ)	.	.
=27	=27	=27
(16Bu/LL	.	.
16d#/	.	.
*	*below	*
!LO:TX:a:i:t=Sul D:dur=3es:ext=ud:problem:text with extention lines:mod=sul D	!	!
16e#X/	1	.
16f#/JJ	.	.
*	*Xbelow	*
16dd#\LL	4	.
16a#\	.	.
16cc#\	.	.
16b\JJ	.	.
16dd#\LL	.	.
!LO:TX:a:i:t=Sul A:dur=4e:ext=ud:problem:text with extention lines:mod=sul A	!	!
16ff#\	.	.
16aa#\	1	.
16bb\JJ	.	.
16ddd#\LL	.	.
16aa#\	.	.
16ccc#\	.	.
16bb\JJ	.	.
!!LO:LB:g=original
=28	=28	=28
*xywh-5:198,1426,3546,573	*	*
*8va	*	*
16ddd#\LL	.	.
16fff#\	.	.
*	*below	*
16aaa#\	1	.
16bbb\JJ	.	.
16dddd#\LL	.	.
16aaa#\	.	.
16cccc#\	.	.
16bbb\JJ)	.	.
[2bbbbv\	o 4	.
=29	=29	=29
!LO:MO:mod=!null:null	!	!
!LO:N:xstem:cue	!	!
!LO:SIC:s=4bbbb]	!	!
4bbbbyy\]	.	.
*X8va	*	*
!LO:TX:a:i:t=loco.:mod=loco	!	!
!LO:TX:a:i:t=Sul G:dur=3hq:ext=ud:problem:text with extention lines:mod=sul G	!	!
16B`u/LL	.	.
(16B/	.	.
16A#/	.	.
16B/JJ	.	.
*	*Xbelow	*
16f#/LL)	4	.
(16f#/	.	.
16c##X/	.	.
16d#/JJ	.	.
16b/LL)	4	.
(16b/	.	.
16e#X/	.	.
16f#/JJ	.	.
=30	=30	=30
16dd#\LL)	.	.
(16dd#\	.	.
16a#\	.	.
16b\JJ	.	.
16ff#\LL)	.	.
(16ff#\	.	.
16cc##X\)	.	.
16dd#`\JJ	.	.
(4.bbv\	3 o	.
8B/)	.	.
!!LO:LB:g=original
=31	=31	=31
*xywh-5:135,1821,3693,509	*	*
([4A#u/	.	.
16A#/LL]	.	.
16c#/	.	.
16e/	.	.
16gn/JJ	.	.
16f#t/LL	.	.
16e/	.	.
16g/	.	.
*	*below	*
16a#/JJ	1	.
16cc#/LL	3	.
16b/	.	.
16a#/	.	.
16cc#/JJ	.	.
=32	=32	=32
*	*Xbelow	*
16ee\LL	2	.
16ggn\	.	.
16ff#\	.	.
16ee\JJ	.	.
16gg\LL	.	.
16aa#\	.	.
16ccc#\	.	.
16bb\JJ	.	.
16aa#\LL	.	.
16ccc#\	.	.
*	*below	*
16eee\	1	.
16gggn\JJ	.	.
16fff#t\LL	2	.
16eee\	1	.
16ggg\	2	.
16aaa#\JJ	3	.
!!LO:LB:g=original
=33	=33	=33
*xywh-5:154,2228,3502,547	*	*
16cccc#\LL)	4	.
(16aaa#v\	3	.
!LO:TX:a:i:t=à la 5me position:dur=4e:ext=ud:problem:text with extention lines	!	!
16eee\	1	.
16fff#\JJ	.	.
16aaan\LL	.	.
16gggn\	.	.
16eee\	.	.
16ccc#\JJ	.	.
16bbT\LL	.	.
16aa#X\	.	.
*	*Xbelow	*
16ee\	0	.
16ff#\	.	.
16aan\	.	.
16ggn\	.	.
16ee\	.	.
16cc#\JJ	3	.
=34	=34	=34
*	*below	*
16bT/LL	2	.
16a#X/	1	.
16e/	2	.
16f#/J	2	.
16an/L	.	.
16gn/	.	.
16e/	.	.
16c#/JJ	.	.
!LO:TX:a:i:t=Sul G:dur=3e:ext=ud:problem:text with extention lines:mod=sul G	!	!
16BT/LL	.	.
16A#X/	.	.
16g#X/	4	.
16f#/JJ	.	.
16e/LL	2	.
16d#/	1	.
16e/	2	.
16c#/JJ)	3	.
!!LO:LB:g=original
=35||	=35||	=35||
!!!key: b
*k[f#c#]	*	*
*xywh-5:154,2610,3438,573	*	*
(16Bu/LL	.	.
16d/	.	.
!LO:TX:a:i:t=Sul D:dur=3es:ext=ud:problem:text with extention lines:mod=sul D	!	!
16e#X/	.	.
16f#/JJ	.	.
*	*Xbelow	*
16dd\LL	4	.
16a#X\	.	.
16cc#\	.	.
16b\JJ	.	.
16dd\LL	.	.
!LO:TX:a:i:t=Sul A:dur=3es:ext=ud:problem:text with extention lines:mod=sul A	!	!
16ff#\	.	.
16aa#X\	1	.
16bb\JJ	.	.
16ddd\LL	.	.
16aa#\	.	.
16ccc#\	.	.
16bb\JJ	.	.
=36	=36	=36
*8va	*	*
16ddd\LL	.	.
16fff#\	.	.
16aaa#X\	.	.
16bbb\JJ	.	.
16dddd\LL	.	.
16aaa#\	.	.
16cccc#\	.	.
16bbb\JJ)	.	.
*	*below	*
2bbbbv\	o 3	.
*X8va	*	*
=37	=37	=37
(16G^^/LL	.	.
16B/	1	.
16d/	3	.
16g/JJ	2	.
16b/LL	4	.
16f#/	.	.
16a/	.	.
16g/JJ	.	.
16b\LL	.	.
16dd\	.	.
*	*Xbelow	*
16ff#\	1	.
16gg\JJ	.	.
16bb\LL	.	.
16ff#\	.	.
16aa\	.	.
16gg\JJ	.	.
!!LO:LB:g=original
=38	=38	=38
*xywh-5:141,3043,3610,560	*	*
16bb\LL	.	.
16ddd\	.	.
16fff#\	1	.
16ggg\JJ	.	.
*8va	*	*
16bbb\LL	.	.
16fff#\	.	.
16aaa\	.	.
16ggg\JJ)	.	.
*	*below	*
2bbbbv\	o 3	.
*X8va	*	*
=39	=39	=39
!LO:TX:a:i:t=loco.:mod=loco	!	!
(16e#Xu\LL	.	.
16g#X\	.	.
16b\	.	.
16cc#\JJ	.	.
16dd\LL	.	.
16b\	.	.
*	*Xbelow	*
16gg#X\	4	.
16ff#\JJ	.	.
16ee#X\LL	.	.
16gg#\	.	.
16bb\	.	.
16ccc#\JJ	.	.
16ddd\LL	.	.
16bb\	.	.
16ggg#X\	4	.
16fff#\JJ	.	.
!!LO:LB:g=original
=40	=40	=40
*xywh-5:141,3438,3546,534	*	*
*8va	*	*
16eee#X\LL	.	.
16ggg#X\	1	.
16bbb\	.	.
16aaa\J	.	.
16ggg#\L	.	.
16bbb\	.	.
*	*below	*
!LO:MO:mod=!LO&colon;TX&colon;a&colon;i&colon;t=sul A & E&colon;dur=3q&colon;&colon;ext=ud&colon;problem&colon;text with extention lines	!	!
!LO:TX:b:i:t=Sul A & E:dur=3q:ext=ud:problem:text with extention lines	!	!
16dddd\)	4	.
(16ggg#v\JJ	3	.
*X8va	*	*
!LO:TX:a:i:t=loco	!	!
16ddd\LL	3	.
16bbb\	4	.
16ggg#y\	4	.
16bb\JJ	3	.
16gg#X\LL	3	.
16eee#X\	4	.
16ddd\	3	.
16ee#X\JJ	1	.
=41||	=41||	=41||
!!!key: B
*k[f#c#g#d#a#]	*	*
8ff#\)	.	.
(16dd#u\LL	.	.
16ff#\JJ	.	.
16bb\LL	.	.
16ddd#\	.	.
16bbb\)	o 4	.
(16aaa#v\JJ	4	.
16ggg#\LL	3	.
16fff#\	2	.
16aa#\	1	.
16bb\JJ	.	.
16eee\LL	4	.
16ddd#\	4	.
16bb\	.	.
16gg#\JJ	.	.
!!LO:LB:g=original
=42	=42	=42
*xywh-5:128,3909,3737,515	*	*
8ff#\)	.	.
(16d#u/LL	.	.
16f#/JJ	.	.
16b\LL	.	.
16dd#\	.	.
!LO:TX:a:i:t=Sul A:dur=3es:ext=ud:problem:text with extention lines:mod=sul A	!	!
16bb\)	4	.
(16aa#v\JJ	3	.
16gg#\LL	2	.
16ff#\	1	.
16a#\	1	.
16b\JJ	1	.
16ee\LL	.	.
16dd#\	.	.
16b\	.	.
16g#\JJ	.	.
=43	=43	=43
8f#/)	.	.
(16A#u/LL	.	.
16c#/JJ	.	.
16f#\LL	.	.
16a#\	.	.
16cc#\	.	.
*	*Xbelow	*
16ff#\JJ	1	.
16aa#\LL	.	.
16ccc#\	.	.
*	*below	*
16fff#\	1	.
16aaa#\JJ	.	.
16cccc#\LL	.	.
16fff#\	1	.
16aaa#\	1	.
16cccc#\JJ)	3	.
!!LO:LB:g=original
=44	=44	=44
*xywh-5:122,4260,3604,751	*	*
(16ffff#v\LL	4	.
16eeee\	4	.
16cccc#\	3	.
16aaa#\J	1	.
!LO:TX:a:i:t=à la 5me position:dur=5e:ext=ud:problem:text with extention lines	!	!
16fff#\L	4	.
16eee\	.	.
16ccc#\	.	.
16aa#\JJ	.	.
16ff#/LL	.	.
16ee/	.	.
16cc#/	.	.
16a#/J	.	.
16f#/L	.	.
16e/	.	.
16c#/	3	.
16A#/JJ)	.	.
=45	=45	=45
(16Bu/LL	.	p
!LO:MO:mod=!LO&colon;TX&colon;a&colon;i&colon;t=poco a poco ritardando&colon;dur=11es&colon;&colon;ext=ud&colon;problem&colon;text with extention lines	!	!
!LO:TX:b:i:t=poco a poco ritardando:dur=11es:ext=ud:problem:text with extention lines	!	!
16d#/	.	.
!LO:TX:a:i:t=Sul D:dur=3es:ext=ud:problem:text with extention lines:mod=sul D	!	!
16e#X/	.	.
16f#/JJ	.	.
*	*Xbelow	*
16dd#\LL	4	.
16a#\	.	.
16cc#\	.	.
16b\JJ	.	.
16dd#\LL	.	.
!LO:TX:a:i:t=Sul A:dur=4e:ext=ud:problem:text with extention lines:mod=sul A	!	!
16ff#\	.	.
16aa#\	1	.
16bb\JJ	.	.
16ddd#\LL	.	.
16aa#\	.	.
16ccc#\	.	.
16bb\JJ	.	.
=46	=46	=46
*8va	*	*
16ddd#\LL	.	.
16fff#\	.	.
16aaa#\	1	.
16bbb\JJ	.	.
16dddd#\LL	.	.
16aaa#\	.	.
16cccc#\	.	.
16bbb\JJ)	.	.
*	*below	*
4bbbb;v\	o 3	pp
*X8va	*	*
4r;	.	.
==	==	==
*-	*-	*-
!!!RDF**kern: < = below
!!!filter-modern: sic -sq  | autostem -r  | modori -m
!!!ENC: Andrzej Kubiczek
!!!END: 2022-05-07
!!!ENC: Andrzej Kubiczek
!!!END: 2022-05-08
!!!ENC-modern: Andrzej Borzym
!!!END-modern: 2022-07-20
!!!IIIF: https://polona.pl/iiif/item/MTE2OTgzMTMy/manifest.json
!!!ENC-iiif: Natalia Wrzos
!!!END-iiif: 2022-08-30
!!!YEC: Copyright 2022 Narodowy Instytut Fryderyka Chopina (https://polishscores.org)
!!!YEM: License CC-BY-4.0 (https://creativecommons.org/licenses/by/4.0)
